X: 8821
T: Cuil Aodha, The
R: jig
M: 6/8
K: Amajor
|:e|afe dBe|ABA c2 d|edc dBA|GEE dBG|
ABA AGA|B^AB g=ab|age dBe|1 ABA A2:|2 ABA Ace||
|:a2 a aga|bef gab|age d2 e|cBA GAB|
a3 aga|bef gab|age dBe|1 ABA A2 e:|2 ABA A2||

